X: 50
T:Belladrum House
M:4/4
L:1/8
R:Strathspey
K:D
F|"D"DE/F/ "G"G>B "D"A<FF>B|"D"A<F (3FED "A7"A,2E2 A,E<F|"D"DE/F/ "G
"G>B
 "D"A<FF>B|
"A7"A<FF>E "D"D2 D>A,|!
"D"DE/F/ "G"G>B "D"A<FF>B|"D"A<F (3FED "A7"A,2E2 A,E<F|"D"DE/F/ "G"G
>B "
D"A<F (3FED|
"G"G>B "A7"A<F "D"D2 D||!
f|"A"eAf>A g>Af>A|"A"e>Ag>f e2 e>f|"A"eAf>A g>Af>A|"A7"(3fga (3gfe "D"d>
AF>A|!
"D"d>f A<f d>f A<f|"D"d>f A<f "A7"e2 eg|"D"(3fga (3gfe "Bm"(3dcB (3AGF|
"G"G>B "A7"A<F "D"D2 D||
